style/favicon/favicon.svg

<svg xmlns="http://www.w3.org/2000/svg" viewBox="3540 7601 15241 9784" role="img" aria-label="Site Logo">
  <title>Site Logo</title>
  <g stroke-width="25" stroke-linejoin="round">

    <path fill="#FFF" stroke="#000" d="M6715 12431c64-204 418-407 889-407s825 203 890 407c0-280-402-509-890-509s-889 229-889 509z" />

    <path fill="#000" d="M17637 12490l-3810-4445-6164 4703-372-516 6350-4572c9-6 18-12 27-17 49-28 103-42 159-42s110 14 159 42c32 19 61 43 85 72l3566 4775z" />
    <path fill="#000" d="M4937 12494l3810 4445 6164-4703 372 516-6350 4572c-9 6-18 12-27 17-49 28-103 42-159 42s-110-14-159-42c-32-19-61-43-85-72l-3566-4775z" />

    <path fill="#FFF" stroke="#000" d="M9762 12429c174-319 806-637 1715-637 908 0 1540 318 1715 637 0-488-774-889-1715-889-942 0-1715 401-1715 889z" />

    <path fill="#FFF" stroke="#000" d="M14335 12431c64-204 418-407 889-407s825 203 890 407c0-280-402-509-890-509s-889 229-889 509z" />

    <path fill="#000" d="M12558 12491c0 223-59 442-170 635-112 193-272 353-465 465-193 111-412 170-635 170-224 0-443-59-636-170-193-112-353-272-465-465-111-193-170-412-170-635 0-224 59-443 170-636 112-193 272-353 465-465 193-111 412-170 635-170 224 0 443 59 636 170 193 112 353 272 465 465 111 193 170 412 170 635v1z" />
    <path fill="#000" d="M8113 12491c0 111-29 221-85 317-56 97-136 177-233 233-96 56-206 85-317 85-112 0-222-29-318-85-97-56-177-136-233-233-56-96-85-206-85-317 0-112 29-222 85-318 56-97 136-177 233-233 96-56 206-85 318-85 111 0 221 29 317 85 97 56 177 136 233 233 56 96 85 206 85 318z" />
    <path fill="#000" d="M15733 12491c0 111-29 221-85 317-56 97-136 177-233 233-96 56-206 85-317 85-112 0-222-29-318-85-97-56-177-136-233-233-56-96-85-206-85-317 0-112 29-222 85-318 56-97 136-177 233-233 96-56 206-85 318-85 111 0 221 29 317 85 97 56 177 136 233 233 56 96 85 206 85 318z" />

    <path fill="#FFF" stroke="#000" d="M8239 12429c-64 204-418 407-889 407s-825-203-890-407c0 280 402 509 890 509s889-229 889-509z" />

    <path fill="#000" d="M11160 12557l7620-127-7620-127-7620 127 7620 127z" />

    <path fill="#FFF" stroke="#000" d="M12811 12430c-174 319-806 637-1715 637-908 0-1540-318-1715-637 0 488 774 889 1715 889 942 0 1715-401 1715-889z" />

    <path fill="#FFF" stroke="#000" d="M15859 12429c-64 204-418 407-889 407s-825-203-890-407c0 280 402 509 890 509s889-229 889-509z" />
  </g>
</svg>

<?xml version="1.0" encoding="UTF-8"?>
<!DOCTYPE svg PUBLIC "-//W3C//DTD SVG 1.1//EN" "http://www.w3.org/Graphics/SVG/1.1/DTD/svg11.dtd">
<svg version="1.2" width="152.41mm" height="97.84mm" viewBox="3540 7601 15241 9784" preserveAspectRatio="xMidYMid" fill-rule="evenodd" stroke-width="28.222" stroke-linejoin="round" xmlns="http://www.w3.org/2000/svg" xmlns:ooo="http://xml.openoffice.org/svg/export" xmlns:xlink="http://www.w3.org/1999/xlink" xmlns:presentation="http://sun.com/xmlns/staroffice/presentation" xmlns:smil="http://www.w3.org/2001/SMIL20/" xmlns:anim="urn:oasis:names:tc:opendocument:xmlns:animation:1.0" xmlns:svg="urn:oasis:names:tc:opendocument:xmlns:svg-compatible:1.0" xml:space="preserve">
 <defs class="EmbeddedBulletChars">
  <g id="bullet-char-template-57356" transform="scale(0.00048828125,-0.00048828125)">
   <path d="M 580,1141 L 1163,571 580,0 -4,571 580,1141 Z"/>
  </g>
  <g id="bullet-char-template-57354" transform="scale(0.00048828125,-0.00048828125)">
   <path d="M 8,1128 L 1137,1128 1137,0 8,0 8,1128 Z"/>
  </g>
  <g id="bullet-char-template-10146" transform="scale(0.00048828125,-0.00048828125)">
   <path d="M 174,0 L 602,739 174,1481 1456,739 174,0 Z M 1358,739 L 309,1346 659,739 1358,739 Z"/>
  </g>
  <g id="bullet-char-template-10132" transform="scale(0.00048828125,-0.00048828125)">
   <path d="M 2015,739 L 1276,0 717,0 1260,543 174,543 174,936 1260,936 717,1481 1274,1481 2015,739 Z"/>
  </g>
  <g id="bullet-char-template-10007" transform="scale(0.00048828125,-0.00048828125)">
   <path d="M 0,-2 C -7,14 -16,27 -25,37 L 356,567 C 262,823 215,952 215,954 215,979 228,992 255,992 264,992 276,990 289,987 310,991 331,999 354,1012 L 381,999 492,748 772,1049 836,1024 860,1049 C 881,1039 901,1025 922,1006 886,937 835,863 770,784 769,783 710,716 594,584 L 774,223 C 774,196 753,168 711,139 L 727,119 C 717,90 699,76 672,76 641,76 570,178 457,381 L 164,-76 C 142,-110 111,-127 72,-127 30,-127 9,-110 8,-76 1,-67 -2,-52 -2,-32 -2,-23 -1,-13 0,-2 Z"/>
  </g>
  <g id="bullet-char-template-10004" transform="scale(0.00048828125,-0.00048828125)">
   <path d="M 285,-33 C 182,-33 111,30 74,156 52,228 41,333 41,471 41,549 55,616 82,672 116,743 169,778 240,778 293,778 328,747 346,684 L 369,508 C 377,444 397,411 428,410 L 1163,1116 C 1174,1127 1196,1133 1229,1133 1271,1133 1292,1118 1292,1087 L 1292,965 C 1292,929 1282,901 1262,881 L 442,47 C 390,-6 338,-33 285,-33 Z"/>
  </g>
  <g id="bullet-char-template-9679" transform="scale(0.00048828125,-0.00048828125)">
   <path d="M 813,0 C 632,0 489,54 383,161 276,268 223,411 223,592 223,773 276,916 383,1023 489,1130 632,1184 813,1184 992,1184 1136,1130 1245,1023 1353,916 1407,772 1407,592 1407,412 1353,268 1245,161 1136,54 992,0 813,0 Z"/>
  </g>
  <g id="bullet-char-template-8226" transform="scale(0.00048828125,-0.00048828125)">
   <path d="M 346,457 C 273,457 209,483 155,535 101,586 74,649 74,723 74,796 101,859 155,911 209,963 273,989 346,989 419,989 480,963 531,910 582,859 608,796 608,723 608,648 583,586 532,535 482,483 420,457 346,457 Z"/>
  </g>
  <g id="bullet-char-template-8211" transform="scale(0.00048828125,-0.00048828125)">
   <path d="M -4,459 L 1135,459 1135,606 -4,606 -4,459 Z"/>
  </g>
  <g id="bullet-char-template-61548" transform="scale(0.00048828125,-0.00048828125)">
   <path d="M 173,740 C 173,903 231,1043 346,1159 462,1274 601,1332 765,1332 928,1332 1067,1274 1183,1159 1299,1043 1357,903 1357,740 1357,577 1299,437 1183,322 1067,206 928,148 765,148 601,148 462,206 346,322 231,437 173,577 173,740 Z"/>
  </g>
 </defs>
 <g class="Page">
  <g class="com.sun.star.drawing.CustomShape">
   <g id="id3">
    <rect class="BoundingBox" stroke="none" fill="none" x="6702" y="11909" width="1806" height="536"/>
    <path fill="rgb(255,255,255)" stroke="none" d="M 6715,12431 C 6779,12227 7133,12024 7604,12024 8075,12024 8429,12227 8494,12431 8494,12151 8092,11922 7604,11922 7116,11922 6715,12151 6715,12431 L 6715,12431 Z"/>
    <path fill="none" stroke="rgb(0,0,0)" stroke-width="25" stroke-linejoin="round" d="M 6715,12431 C 6779,12227 7133,12024 7604,12024 8075,12024 8429,12227 8494,12431 8494,12151 8092,11922 7604,11922 7116,11922 6715,12151 6715,12431 Z"/>
   </g>
  </g>
  <g class="Group">
   <g class="com.sun.star.drawing.ClosedBezierShape">
    <g id="id4">
     <rect class="BoundingBox" stroke="none" fill="none" x="7290" y="7601" width="10348" height="5149"/>
     <path fill="rgb(0,0,0)" stroke="none" d="M 17637,12490 L 17637,12490 13827,8045 7663,12748 7291,12232 13641,7660 C 13650,7654 13659,7648 13668,7643 13717,7615 13771,7601 13827,7601 13883,7601 13937,7615 13986,7643 14018,7662 14047,7686 14071,7715 L 17637,12490 Z"/>
    </g>
   </g>
   <g class="com.sun.star.drawing.ClosedBezierShape">
    <g id="id5">
     <rect class="BoundingBox" stroke="none" fill="none" x="4936" y="12236" width="10348" height="5149"/>
     <path fill="rgb(0,0,0)" stroke="none" d="M 4937,12494 L 4937,12494 8747,16939 14911,12236 15283,12752 8933,17324 C 8924,17330 8915,17336 8906,17341 8857,17369 8803,17383 8747,17383 8691,17383 8637,17369 8588,17341 8556,17322 8527,17298 8503,17269 L 4937,12494 Z"/>
    </g>
   </g>
  </g>
  <g class="com.sun.star.drawing.CustomShape">
   <g id="id6">
    <rect class="BoundingBox" stroke="none" fill="none" x="9749" y="11527" width="3457" height="916"/>
    <path fill="rgb(255,255,255)" stroke="none" d="M 9762,12429 C 9936,12110 10568,11792 11477,11792 12385,11792 13017,12110 13192,12429 13192,11941 12418,11540 11477,11540 10535,11540 9762,11941 9762,12429 L 9762,12429 Z"/>
    <path fill="none" stroke="rgb(0,0,0)" stroke-width="25" stroke-linejoin="round" d="M 9762,12429 C 9936,12110 10568,11792 11477,11792 12385,11792 13017,12110 13192,12429 13192,11941 12418,11540 11477,11540 10535,11540 9762,11941 9762,12429 Z"/>
   </g>
  </g>
  <g class="com.sun.star.drawing.CustomShape">
   <g id="id7">
    <rect class="BoundingBox" stroke="none" fill="none" x="14322" y="11909" width="1806" height="536"/>
    <path fill="rgb(255,255,255)" stroke="none" d="M 14335,12431 C 14399,12227 14753,12024 15224,12024 15695,12024 16049,12227 16114,12431 16114,12151 15712,11922 15224,11922 14736,11922 14335,12151 14335,12431 L 14335,12431 Z"/>
    <path fill="none" stroke="rgb(0,0,0)" stroke-width="25" stroke-linejoin="round" d="M 14335,12431 C 14399,12227 14753,12024 15224,12024 15695,12024 16049,12227 16114,12431 16114,12151 15712,11922 15224,11922 14736,11922 14335,12151 14335,12431 Z"/>
   </g>
  </g>
  <g class="com.sun.star.drawing.CustomShape">
   <g id="id8">
    <rect class="BoundingBox" stroke="none" fill="none" x="10017" y="11220" width="2542" height="2542"/>
    <path fill="rgb(0,0,0)" stroke="none" d="M 12558,12491 C 12558,12714 12499,12933 12388,13126 12276,13319 12116,13479 11923,13591 11730,13702 11511,13761 11288,13761 11064,13761 10845,13702 10652,13591 10459,13479 10299,13319 10187,13126 10076,12933 10017,12714 10017,12491 10017,12267 10076,12048 10187,11855 10299,11662 10459,11502 10652,11390 10845,11279 11064,11220 11287,11220 11511,11220 11730,11279 11923,11390 12116,11502 12276,11662 12388,11855 12499,12048 12558,12267 12558,12490 L 12558,12491 Z"/>
   </g>
  </g>
  <g class="com.sun.star.drawing.CustomShape">
   <g id="id9">
    <rect class="BoundingBox" stroke="none" fill="none" x="6842" y="11855" width="1272" height="1272"/>
    <path fill="rgb(0,0,0)" stroke="none" d="M 8113,12491 C 8113,12602 8084,12712 8028,12808 7972,12905 7892,12985 7795,13041 7699,13097 7589,13126 7478,13126 7366,13126 7256,13097 7160,13041 7063,12985 6983,12905 6927,12808 6871,12712 6842,12602 6842,12491 6842,12379 6871,12269 6927,12173 6983,12076 7063,11996 7160,11940 7256,11884 7366,11855 7478,11855 7589,11855 7699,11884 7795,11940 7892,11996 7972,12076 8028,12173 8084,12269 8113,12379 8113,12491 L 8113,12491 Z"/>
   </g>
  </g>
  <g class="com.sun.star.drawing.CustomShape">
   <g id="id10">
    <rect class="BoundingBox" stroke="none" fill="none" x="14462" y="11855" width="1272" height="1272"/>
    <path fill="rgb(0,0,0)" stroke="none" d="M 15733,12491 C 15733,12602 15704,12712 15648,12808 15592,12905 15512,12985 15415,13041 15319,13097 15209,13126 15098,13126 14986,13126 14876,13097 14780,13041 14683,12985 14603,12905 14547,12808 14491,12712 14462,12602 14462,12491 14462,12379 14491,12269 14547,12173 14603,12076 14683,11996 14780,11940 14876,11884 14986,11855 15098,11855 15209,11855 15319,11884 15415,11940 15512,11996 15592,12076 15648,12173 15704,12269 15733,12379 15733,12491 L 15733,12491 Z"/>
   </g>
  </g>
  <g class="com.sun.star.drawing.CustomShape">
   <g id="id11">
    <rect class="BoundingBox" stroke="none" fill="none" x="6447" y="12416" width="1806" height="536"/>
    <path fill="rgb(255,255,255)" stroke="none" d="M 8239,12429 C 8175,12633 7821,12836 7350,12836 6879,12836 6525,12633 6460,12429 6460,12709 6862,12938 7350,12938 7838,12938 8239,12709 8239,12429 L 8239,12429 Z"/>
    <path fill="none" stroke="rgb(0,0,0)" stroke-width="25" stroke-linejoin="round" d="M 8239,12429 C 8175,12633 7821,12836 7350,12836 6879,12836 6525,12633 6460,12429 6460,12709 6862,12938 7350,12938 7838,12938 8239,12709 8239,12429 Z"/>
   </g>
  </g>
  <g class="com.sun.star.drawing.PolyPolygonShape">
   <g id="id12">
    <rect class="BoundingBox" stroke="none" fill="none" x="3540" y="12303" width="15241" height="255"/>
    <path fill="rgb(0,0,0)" stroke="none" d="M 11160,12557 L 18780,12430 11160,12303 3540,12430 11160,12557 Z"/>
   </g>
  </g>
  <g class="com.sun.star.drawing.CustomShape">
   <g id="id13">
    <rect class="BoundingBox" stroke="none" fill="none" x="9368" y="12417" width="3457" height="916"/>
    <path fill="rgb(255,255,255)" stroke="none" d="M 12811,12430 C 12637,12749 12005,13067 11096,13067 10188,13067 9556,12749 9381,12430 9381,12918 10155,13319 11096,13319 12038,13319 12811,12918 12811,12430 L 12811,12430 Z"/>
    <path fill="none" stroke="rgb(0,0,0)" stroke-width="25" stroke-linejoin="round" d="M 12811,12430 C 12637,12749 12005,13067 11096,13067 10188,13067 9556,12749 9381,12430 9381,12918 10155,13319 11096,13319 12038,13319 12811,12918 12811,12430 Z"/>
   </g>
  </g>
  <g class="com.sun.star.drawing.CustomShape">
   <g id="id14">
    <rect class="BoundingBox" stroke="none" fill="none" x="14067" y="12416" width="1806" height="536"/>
    <path fill="rgb(255,255,255)" stroke="none" d="M 15859,12429 C 15795,12633 15441,12836 14970,12836 14499,12836 14145,12633 14080,12429 14080,12709 14482,12938 14970,12938 15458,12938 15859,12709 15859,12429 L 15859,12429 Z"/>
    <path fill="none" stroke="rgb(0,0,0)" stroke-width="25" stroke-linejoin="round" d="M 15859,12429 C 15795,12633 15441,12836 14970,12836 14499,12836 14145,12633 14080,12429 14080,12709 14482,12938 14970,12938 15458,12938 15859,12709 15859,12429 Z"/>
   </g>
  </g>
 </g>
</svg>
